_includes/icons/color-idea-sharing.svg

<svg fill="#666" height="50" viewBox="0 0 48 48" width="50" xmlns="http://www.w3.org/2000/svg"><path d="m39.54 32.5c-.412-.953-1.348-1.511-2.322-1.499-.325.004-.653.072-.968.209l-1.14.5c-.02-.07-.04-.13-.06-.2-.412-.953-1.342-1.517-2.318-1.512-.324.002-.654.067-.972.202l-3.34 1.44-7.93 3.42-5.55-1.79c-.18.076-3.243 1.24-5.246 2.03l16.792 7.064 12.514-5.364-.75-1.21c1.27-.55 1.84-2.03 1.29-3.29z" fill="#e89531"/><path d="m43.79 33.5c-.41-.95-1.35-1.51-2.32-1.5-.33 0-.66.07-.97.21l-8.51 3.72c.04.63-.07 1.26-.31 1.86-.17.43-.4.82-.68 1.17-.84 1.04-2.11 1.67-3.5 1.67-.09 0-.19 0-.28-.01-.47-.03-.94-.13-1.38-.31l-.2-.08c-.291-.116-5.427-2.143-9.022-3.562-.492-.214-.734-.776-.536-1.278.203-.514.784-.767 1.297-.564l1.784.702c.016.005.029.003.045.009 2.746 1.076 6.089 2.403 7.074 2.794l.094.037s.001.001.001.001c.122.048.191.076.198.079.303.121.616.178.923.178.994 0 1.934-.597 2.324-1.577.511-1.283-.116-2.736-1.399-3.247-.322-.128-7.912-3.147-10.541-4.141-.806-.305-2.177-.661-3.382-.661-3.523 0-8.342 1.836-10.5 2.75l3.375 8.25 3.77-1.55 13.425 5.37c.3.12.62.18.93.18.34 0 .68-.07 1-.21l16-7c1.27-.55 1.84-2.03 1.29-3.29z" fill="#ffb74d"/><circle cx="26" cy="14" fill="#fff59d" r="10"/><path d="m32 14c0-3.553-3.088-6.384-6.726-5.957-2.621.308-4.793 2.388-5.199 4.996-.375 2.412.691 4.603 2.466 5.858.278.196.459.5.459.84v1.263h6v-1.267c0-.338.181-.64.457-.836 1.537-1.085 2.543-2.872 2.543-4.897z" fill="#fbc02d"/><path d="m23.002 20v3c0 1 .7 1.8 1.599 2 .2.6.8 1 1.399 1 .7 0 1.2-.4 1.399-1 .901-.2 1.601-1 1.601-2v-3z" fill="#283593"/><path d="m29 23v-1.9l-5.998.8v1.1c0 .3.1.6.2.9l5.798-.7c0-.1 0-.2 0-.2z" fill="#5c6bc0"/><path d="m28.957 14.457-1.414-1.414-1.543 1.543-1.543-1.543-1.414 1.414 1.957 1.957v3.586h2v-3.586z" fill="#fff"/></svg>

<svg xmlns="http://www.w3.org/2000/svg" viewBox="0 0 48 48" width="50" height="50" fill="#666"><path d="M39.54,32.5c-0.412-0.953-1.348-1.511-2.322-1.499c-0.325,0.004-0.653,0.072-0.968,0.209l-1.14,0.5 c-0.02-0.07-0.04-0.13-0.06-0.2c-0.412-0.953-1.342-1.517-2.318-1.512C32.408,30,32.078,30.065,31.76,30.2l-3.34,1.44l-7.93,3.42 l-5.55-1.79c-0.18,0.076-3.243,1.24-5.246,2.03l16.792,7.064L39,37l-0.75-1.21C39.52,35.24,40.09,33.76,39.54,32.5z" fill="#e89531"/><path d="M43.79,33.5c-0.41-0.95-1.35-1.51-2.32-1.5c-0.33,0-0.66,0.07-0.97,0.21l-8.51,3.72 c0.04,0.63-0.07,1.26-0.31,1.86c-0.17,0.43-0.4,0.82-0.68,1.17c-0.84,1.04-2.11,1.67-3.5,1.67c-0.09,0-0.19,0-0.28-0.01 c-0.47-0.03-0.94-0.13-1.38-0.31l-0.2-0.08c-0.291-0.116-5.427-2.143-9.022-3.562c-0.492-0.214-0.734-0.776-0.536-1.278 c0.203-0.514,0.784-0.767,1.297-0.564l1.784,0.702c0.016,0.005,0.029,0.003,0.045,0.009c2.746,1.076,6.089,2.403,7.074,2.794 l0.094,0.037c0,0,0.001,0.001,0.001,0.001c0.122,0.048,0.191,0.076,0.198,0.079c0.303,0.121,0.616,0.178,0.923,0.178 c0.994,0,1.934-0.597,2.324-1.577c0.511-1.283-0.116-2.736-1.399-3.247c-0.322-0.128-7.912-3.147-10.541-4.141 C17.076,29.356,15.705,29,14.5,29c-3.523,0-8.342,1.836-10.5,2.75L7.375,40l3.77-1.55l13.425,5.37c0.3,0.12,0.62,0.18,0.93,0.18 c0.34,0,0.68-0.07,1-0.21l16-7C43.77,36.24,44.34,34.76,43.79,33.5z" fill="#ffb74d"/><circle cx="26" cy="14" r="10" fill="#fff59d"/><path d="M32,14c0-3.553-3.088-6.384-6.726-5.957c-2.621,0.308-4.793,2.388-5.199,4.996 c-0.375,2.412,0.691,4.603,2.466,5.858c0.278,0.196,0.459,0.5,0.459,0.84V21h6v-1.267c0-0.338,0.181-0.64,0.457-0.836 C30.994,17.812,32,16.025,32,14z" fill="#fbc02d"/><path d="M23.002,20v3c0,1,0.7,1.8,1.599,2c0.2,0.6,0.8,1,1.399,1c0.7,0,1.2-0.4,1.399-1 C28.3,24.8,29,24,29,23v-3H23.002z" fill="#283593"/><path d="M29,23v-1.9l-5.998,0.8V23c0,0.3,0.1,0.6,0.2,0.9L29,23.2C29,23.1,29,23,29,23z" fill="#5c6bc0"/><path fill="#fff" d="M28.957 14.457L27.543 13.043 26 14.586 24.457 13.043 23.043 14.457 25 16.414 25 20 27 20 27 16.414z"/></svg>
